X: 173
T: Trip to Easton
%R: reel
B: Chas & Sam Thompson "Twenty Four Country Dances for the Year 1780", London 1780, p.87 #1
F: http://www.vwml.org/browse/browse-collections-dance-tune-books/browse-thompsons1780
Z: 2014 John Chambers <jc:trillian.mit.edu> (added dance description)
M: 2/4
L: 1/16
K: D
% - - - - - - - - - - - - - - - - - - - - - - - - - - - - -
|:\
fefg a2d2 | c2d2e2A2 | BABc d2B2 | A2F2E2D2 |\
fefg a2d2 | cBcd e2d2 | c2A2B2^G2 | A4 A4 :|
|:\
A3F AFAF | G3E GEGE | FDEF GABc | d2A2F2D2 |\
F3G AFAF | E3F GEGE | B2dB A2G2 | A2F2 D4 :|
% - - - - - - - - - - Dance description - - - - - - - - - -
%%begintext align
%%   The first Gent: set and turn the 3d Lady .|. the first Lady
%% do the same with the 3d Gent: :|. lead thro' the bottom and
%% cast up lead thro' the top & cast off .|: Hands round 4
%% at bottom Right and Left at top :|:
%%endtext

%%sep 1 1 500
%%sep 1 1 500
